svg/silo.svg

<svg xmlns="http://www.w3.org/2000/svg" width="24" height="24" viewBox="0 0 24 24"><path d="M8.5 2a6.5 6.5 0 0 1 6.46 5.78L22 12v2l-2-1.2V22h-2V11.6l-3-1.8V22h-2V9H4v13H2V8.5A6.5 6.5 0 0 1 8.5 2m0 2C6.54 4 4.87 5.25 4.26 7h8.48c-.61-1.75-2.28-3-4.24-3M6 11h5v2H6v-2m0 4h5v2H6v-2m0 4h5v2H6v-2z"/></svg>

<?xml version="1.0" encoding="UTF-8"?><!DOCTYPE svg PUBLIC "-//W3C//DTD SVG 1.1//EN" "http://www.w3.org/Graphics/SVG/1.1/DTD/svg11.dtd"><svg xmlns="http://www.w3.org/2000/svg" xmlns:xlink="http://www.w3.org/1999/xlink" version="1.1" width="24" height="24" viewBox="0 0 24 24"><path d="M8.5,2C11.85,2 14.6,4.53 14.96,7.78L22,12V14L20,12.8V22H18V11.6L15,9.8V22H13V9H4V22H2V8.5A6.5,6.5 0 0,1 8.5,2M8.5,4C6.54,4 4.87,5.25 4.26,7H12.74C12.13,5.25 10.46,4 8.5,4M6,11H11V13H6V11M6,15H11V17H6V15M6,19H11V21H6V19Z" /></svg>
